icons/svg/shopping/toys.svg

<?xml version="1.0" encoding="UTF-8" standalone="no"?>
<!-- Created with Inkscape (http://www.inkscape.org/) -->

<svg
   xmlns:dc="http://purl.org/dc/elements/1.1/"
   xmlns:cc="http://creativecommons.org/ns#"
   xmlns:rdf="http://www.w3.org/1999/02/22-rdf-syntax-ns#"
   xmlns:svg="http://www.w3.org/2000/svg"
   xmlns="http://www.w3.org/2000/svg"
   xmlns:sodipodi="http://sodipodi.sourceforge.net/DTD/sodipodi-0.dtd"
   xmlns:inkscape="http://www.inkscape.org/namespaces/inkscape"
   version="1.0"
   width="580"
   height="580"
   id="svg2"
   sodipodi:version="0.32"
   inkscape:version="0.48.0 r9654"
   sodipodi:docname="shopping_toys.svg"
   inkscape:output_extension="org.inkscape.output.svg.inkscape">
  <metadata
     id="metadata2975">
    <rdf:RDF>
      <cc:Work
         rdf:about="">
        <dc:format>image/svg+xml</dc:format>
        <dc:type
           rdf:resource="http://purl.org/dc/dcmitype/StillImage" />
        <cc:license
           rdf:resource="http://web.resource.org/cc/PublicDomain" />
        <dc:language>en</dc:language>
        <dc:title></dc:title>
      </cc:Work>
    </rdf:RDF>
  </metadata>
  <sodipodi:namedview
     inkscape:window-height="1002"
     inkscape:window-width="1278"
     inkscape:pageshadow="2"
     inkscape:pageopacity="0.0"
     guidetolerance="10.0"
     gridtolerance="10.0"
     objecttolerance="10.0"
     borderopacity="1.0"
     bordercolor="#666666"
     pagecolor="#ffffff"
     id="base"
     inkscape:zoom="0.32586207"
     inkscape:cx="72.492663"
     inkscape:cy="-91.770625"
     inkscape:window-x="0"
     inkscape:window-y="24"
     inkscape:current-layer="svg2"
     showgrid="false"
     showguides="true"
     inkscape:guide-bbox="true"
     inkscape:window-maximized="0" />
  <defs
     id="defs4">
    <inkscape:perspective
       sodipodi:type="inkscape:persp3d"
       inkscape:vp_x="0 : 290 : 1"
       inkscape:vp_y="0 : 1000 : 0"
       inkscape:vp_z="580 : 290 : 1"
       inkscape:persp3d-origin="290 : 193.33333 : 1"
       id="perspective2441" />
    <inkscape:perspective
       id="perspective3452"
       inkscape:persp3d-origin="30 : 20 : 1"
       inkscape:vp_z="60 : 30 : 1"
       inkscape:vp_y="0 : 1000 : 0"
       inkscape:vp_x="0 : 30 : 1"
       sodipodi:type="inkscape:persp3d" />
    <symbol
       viewBox="244.5 110 489 219.9"
       id="symbol-university">
      <path
         id="path4460"
         d="M79,43l57,119c0,0,21-96,104-96s124,106,124,106l43-133l82-17L0,17L79,43z" />
      <path
         id="path4462"
         d="M94,176l-21,39"
         stroke-width="20"
         stroke="#000000"
         fill="none" />
      <path
         id="path4464"
         d="M300,19c0,10.5-22.6,19-50.5,19S199,29.5,199,19s22.6-19,50.5-19S300,8.5,300,19z" />
      <path
         id="path4466"
         d="M112,216l-16-38L64,88c0,0-9-8-4-35s16-24,16-24"
         stroke-width="20"
         stroke="#000000"
         ill="none" />
    </symbol>
    <inkscape:perspective
       id="perspective4471"
       inkscape:persp3d-origin="372.04724 : 350.78739 : 1"
       inkscape:vp_z="744.09448 : 526.18109 : 1"
       inkscape:vp_y="0 : 1000 : 0"
       inkscape:vp_x="0 : 526.18109 : 1"
       sodipodi:type="inkscape:persp3d" />
    <inkscape:perspective
       id="perspective4668"
       inkscape:persp3d-origin="6 : 4 : 1"
       inkscape:vp_z="12 : 6 : 1"
       inkscape:vp_y="0 : 1000 : 0"
       inkscape:vp_x="0 : 6 : 1"
       sodipodi:type="inkscape:persp3d" />
    <marker
       viewBox="0 0 10 10"
       refY="5"
       refX="10"
       orient="auto"
       markerWidth="4"
       markerUnits="strokeWidth"
       markerHeight="3"
       id="ArrowStart">
      <path
         id="path3634"
         d="M 10 0 L 0 5 L 10 10 z" />
    </marker>
    <marker
       viewBox="0 0 10 10"
       refY="5"
       refX="0"
       orient="auto"
       markerWidth="4"
       markerUnits="strokeWidth"
       markerHeight="3"
       id="ArrowEnd">
      <path
         id="path3631"
         d="M 0 0 L 10 5 L 0 10 z" />
    </marker>
    <inkscape:perspective
       id="perspective2510"
       inkscape:persp3d-origin="306.082 : 204.39034 : 1"
       inkscape:vp_z="612.164 : 306.58551 : 1"
       inkscape:vp_y="0 : 1000 : 0"
       inkscape:vp_x="0 : 306.58551 : 1"
       sodipodi:type="inkscape:persp3d" />
    <marker
       viewBox="0 0 10 10"
       refY="5"
       refX="10"
       orient="auto"
       markerWidth="4"
       markerUnits="strokeWidth"
       markerHeight="3"
       id="marker2611">
      <path
         id="path1325"
         d="M 10 0 L 0 5 L 10 10 z" />
    </marker>
    <marker
       viewBox="0 0 10 10"
       refY="5"
       refX="0"
       orient="auto"
       markerWidth="4"
       markerUnits="strokeWidth"
       markerHeight="3"
       id="marker2608">
      <path
         id="path1322"
         d="M 0 0 L 10 5 L 0 10 z" />
    </marker>
    <inkscape:perspective
       id="perspective2605"
       inkscape:persp3d-origin="306.082 : 204.39034 : 1"
       inkscape:vp_z="612.164 : 306.58551 : 1"
       inkscape:vp_y="0 : 1000 : 0"
       inkscape:vp_x="0 : 306.58551 : 1"
       sodipodi:type="inkscape:persp3d" />
    <inkscape:perspective
       id="perspective2656"
       inkscape:persp3d-origin="372.04724 : 350.78739 : 1"
       inkscape:vp_z="744.09448 : 526.18109 : 1"
       inkscape:vp_y="0 : 1000 : 0"
       inkscape:vp_x="0 : 526.18109 : 1"
       sodipodi:type="inkscape:persp3d" />
    <marker
       viewBox="0 0 10 10"
       refY="5"
       refX="10"
       orient="auto"
       markerWidth="4"
       markerUnits="strokeWidth"
       markerHeight="3"
       id="marker4460">
      <path
         id="path2826"
         d="M 10 0 L 0 5 L 10 10 z" />
    </marker>
    <marker
       viewBox="0 0 10 10"
       refY="5"
       refX="0"
       orient="auto"
       markerWidth="4"
       markerUnits="strokeWidth"
       markerHeight="3"
       id="marker4457">
      <path
         id="path2823"
         d="M 0 0 L 10 5 L 0 10 z" />
    </marker>
    <inkscape:perspective
       id="perspective4454"
       inkscape:persp3d-origin="421.95551 : 208.05033 : 1"
       inkscape:vp_z="843.91101 : 312.0755 : 1"
       inkscape:vp_y="0 : 1000 : 0"
       inkscape:vp_x="0 : 312.0755 : 1"
       sodipodi:type="inkscape:persp3d" />
  </defs>
  <g
     id="g1327">
    <path
       d="M 66.275,1.768 C 24.94,1.768 1.704,23.139 1.704,66.804 L 1.704,516.927 C 1.704,557.771 22.599,579.156 63.896,579.156 L 515.92,579.156 C 557.227,579.156 578.149,558.841 578.149,516.927 L 578.149,66.804 C 578.149,24.203 557.227,1.768 514.628,1.768 C 514.624,1.768 66.133,1.625 66.275,1.768 z "
       style="fill:#111;stroke:#eee;stroke-width:3.40799999"
       id="path1329" />
  </g>
  <path
     id="path2836"
     style="fill:#000000;stroke:#000000;stroke-width:1.85899997"
     d="" />
  <g
     id="g2830"
     transform="matrix(1.0003476,0,0,0.7145342,-135.88909,-99.846725)"
     style="opacity:0.5;fill:#ffffff;fill-opacity:1;stroke:#ffffff;stroke-opacity:1">
    <path
       id="path2834"
       style="fill:#ffffff;fill-opacity:1;stroke:#ffffff;stroke-width:42;stroke-opacity:1"
       d="" />
  </g>
  <path
     inkscape:connector-curvature="0"
     style="fill:#ffffff;fill-opacity:1;fill-rule:evenodd;stroke:#ffffff;stroke-width:9.13918209;stroke-linecap:round;stroke-linejoin:round;stroke-miterlimit:4;stroke-opacity:1;stroke-dasharray:none"
     d="m 215.07797,206.70435 94.26296,-21.09793 c 43.12908,-6.61406 65.35241,2.36896 79.89908,17.07927 56.76374,-13.63905 79.71596,5.83052 98.75166,29.13523 l -12.35376,16.47875 c -15.24757,-21.18221 -40.58898,-41.15378 -79.58676,-33.09924 4.96868,25.65181 20.84697,46.36283 42.56469,63.98162 13.77488,33.31599 28.0074,82.30861 51.17131,110.37097 l -14.36387,22.10259 c -15.6473,-36.94613 -38.33643,-90.77666 -70.70701,-111.68132 -24.92712,-7.08883 -47.94182,-13.48574 -65.74985,-33.85287 l -11.87562,-3.84391 c -29.18729,26.95421 -73.86137,36.35473 -114.70607,36.99781 -27.68555,29.21716 -50.995,70.23383 -89.77424,119.41293 L 95.67822,406.63229 c 32.21042,-25.02405 56.82425,-79.96951 84.38779,-115.39428 -1.18745,-44.08362 -26.68553,-82.6131 -44.07114,-94.64151 -17.3856,-12.02844 -38.26075,13.05606 -58.271501,16.13583 C 66.244508,214.53417 57.60469,197.92318 64.257233,189.62508 71.199796,180.96522 97.60416,150.62425 120.815,138.38726 l 8.97743,-23.10725 5.38645,22.10259 c 27.75365,18.09096 56.67747,30.9437 79.89909,69.32175 z"
     id="path2529"
     sodipodi:nodetypes="cccccccccccccccczczcccc" />
  <path
     style="fill:none;stroke:#ffffff;stroke-width:30.00000191;stroke-linecap:round;stroke-linejoin:miter;stroke-miterlimit:4;stroke-opacity:1;stroke-dasharray:none"
     d="m 535.68075,383.70171 c -68.48452,43.55677 -149.76583,68.78712 -236.94001,68.78712 -90.59194,0 -174.81988,-27.2475 -244.935616,-73.99428"
     id="path11229"
     inkscape:connector-curvature="0" />
</svg>

<svg width="580" height="580" viewBox="0 0 580 580" fill="none" xmlns="http://www.w3.org/2000/svg">
<g clip-path="url(#clip0)">
<path d="M66.2751 1.76863C24.9401 1.76863 1.7041 23.1396 1.7041 66.8046V516.928C1.7041 557.772 22.5991 579.157 63.8961 579.157H515.92C557.227 579.157 578.149 558.842 578.149 516.928V66.8046C578.149 24.2036 557.227 1.76863 514.628 1.76863C514.624 1.76863 66.1331 1.62563 66.2751 1.76863Z" fill="#111111" stroke="#EEEEEE" stroke-width="3.408"/>
<path fill-rule="evenodd" clip-rule="evenodd" d="M215.078 206.704L309.341 185.606C352.47 178.992 374.693 187.975 389.24 202.685C446.004 189.046 468.956 208.516 487.992 231.82L475.638 248.299C460.39 227.117 435.049 207.145 396.051 215.2C401.02 240.852 416.898 261.563 438.616 279.181C452.391 312.497 466.623 361.49 489.787 389.552L475.423 411.655C459.776 374.709 437.087 320.878 404.716 299.974C379.789 292.885 356.774 286.488 338.966 266.121L327.091 262.277C297.904 289.231 253.229 298.632 212.385 299.275C184.699 328.492 161.39 369.508 122.611 418.688L95.6783 406.632C127.889 381.608 152.503 326.662 180.066 291.237C178.879 247.154 153.381 208.624 135.995 196.596C118.609 184.567 97.7341 209.652 77.7234 212.732C66.2445 214.533 57.6047 197.922 64.2573 189.624C71.1998 180.965 97.6042 150.624 120.815 138.387L129.792 115.279L135.179 137.382C162.933 155.473 191.856 168.326 215.078 206.704V206.704Z" fill="white" stroke="white" stroke-width="9.13918" stroke-linecap="round" stroke-linejoin="round"/>
<path d="M535.681 383.701C467.196 427.258 385.915 452.488 298.741 452.488C208.149 452.488 123.921 425.241 53.8052 378.494" stroke="white" stroke-width="30" stroke-linecap="round"/>
</g>
<defs>
<clipPath id="clip0">
<path d="M0 0H580V580H0V0Z" fill="white"/>
</clipPath>
</defs>
</svg>
